X:127
T:Opp {\aa} ud {\aa} g{\aa}
T:Tr\"askopolskan
R:sl\"angpolska
H:jfr #115, #212
A:Sk{\aa}ne
B:SvL Sk{\aa}ne 48, efter N\"as Ingars (Inga Persdotter, D\"onaberga, Hj\"ars{\aa}s, 1835-1911)
Z:id:hn-sp-127
M:3/4
L:1/16
K:D
a2a2 b2b2 a4 | agfg a2a2 g2f2 |
w:Opp {\aa} ud {\aa} {\aa}, fal-le ral-le ral-la lal-la
a2a2 b2b2 a4 | agfg e4 d4 :|
w:sto-ra tr\"a-skor p{\aa}, fal-le ral-le ral-la.
|: f2f2 g2g2 f4 | fede f2f2 e2d2 |
w:Vars en sup \"an-nu, fal-le ral-le ral-la lal-la
w:F{\aa} vi en-te fem, fal-le ral-le ral-la lal-la,
f2f2 g2g2 f2a2 | agfg e4 d4 :|
w:Kan-ske f{\aa} vi sju,_ fal-le ral-le ral-la.
w:G{\aa} vi hem i-gen,_ fal-le ral-le ral-la.
<end>
<start>
